static/img/kroki/43a757d0d0125451e9fd496444e5b7eb.svg

<?xml version="1.0" encoding="us-ascii" standalone="no"?><svg xmlns="http://www.w3.org/2000/svg" xmlns:xlink="http://www.w3.org/1999/xlink" contentStyleType="text/css" height="793px" preserveAspectRatio="none" style="width:251px;height:793px;" version="1.1" viewBox="0 0 251 793" width="251px" zoomAndPan="magnify"><defs/><g><!--class aws_resource--><g id="elem_aws_resource"><rect codeLine="22" fill="#3D176E" height="74.0859" id="aws_resource" rx="2.5" ry="2.5" style="stroke:#000D19;stroke-width:0.5;" width="155" x="48" y="438.76"/><ellipse cx="63" cy="458.6545" fill="#ADD1B2" rx="11" ry="11" style="stroke:#181818;stroke-width:1.0;"/><path d="M65.9688,464.2952 Q65.3906,464.592 64.75,464.7327 Q64.1094,464.8889 63.4063,464.8889 Q60.9063,464.8889 59.5781,463.2483 Q58.2656,461.592 58.2656,458.467 Q58.2656,455.342 59.5781,453.6858 Q60.9063,452.0295 63.4063,452.0295 Q64.1094,452.0295 64.75,452.1858 Q65.4063,452.342 65.9688,452.6389 L65.9688,455.3577 Q65.3438,454.7795 64.75,454.5139 Q64.1563,454.2327 63.5313,454.2327 Q62.1875,454.2327 61.5,455.3108 Q60.8125,456.3733 60.8125,458.467 Q60.8125,460.5608 61.5,461.6389 Q62.1875,462.7014 63.5313,462.7014 Q64.1563,462.7014 64.75,462.4358 Q65.3438,462.1545 65.9688,461.5764 L65.9688,464.2952 Z " fill="#000000"/><text fill="#D9B8FF" font-family="Helvetica" font-size="17" lengthAdjust="spacing" textLength="113" x="82" y="464.5398">aws_resource</text><line style="stroke:#000D19;stroke-width:0.5;" x1="49" x2="202" y1="478.5491" y2="478.5491"/><text fill="#D9B8FF" font-family="sans-serif" font-size="14" font-weight="bold" lengthAdjust="spacing" textLength="26" x="59" y="500.5442">arn</text><text fill="#D9B8FF" font-family="sans-serif" font-size="14" lengthAdjust="spacing" textLength="48" x="85" y="500.5442">: string</text></g><!--class aws_sagemaker_image--><g id="elem_aws_sagemaker_image"><rect codeLine="25" fill="#3D176E" height="152.9766" id="aws_sagemaker_image" rx="2.5" ry="2.5" style="stroke:#000D19;stroke-width:0.5;" width="237" x="7" y="633.84"/><ellipse cx="22" cy="653.7345" fill="#ADD1B2" rx="11" ry="11" style="stroke:#181818;stroke-width:1.0;"/><path d="M24.9688,659.3752 Q24.3906,659.672 23.75,659.8127 Q23.1094,659.9689 22.4063,659.9689 Q19.9063,659.9689 18.5781,658.3283 Q17.2656,656.672 17.2656,653.547 Q17.2656,650.422 18.5781,648.7658 Q19.9063,647.1095 22.4063,647.1095 Q23.1094,647.1095 23.75,647.2658 Q24.4063,647.422 24.9688,647.7189 L24.9688,650.4377 Q24.3438,649.8595 23.75,649.5939 Q23.1563,649.3127 22.5313,649.3127 Q21.1875,649.3127 20.5,650.3908 Q19.8125,651.4533 19.8125,653.547 Q19.8125,655.6408 20.5,656.7189 Q21.1875,657.7814 22.5313,657.7814 Q23.1563,657.7814 23.75,657.5158 Q24.3438,657.2345 24.9688,656.6564 L24.9688,659.3752 Z " fill="#000000"/><text fill="#D9B8FF" font-family="Helvetica" font-size="17" lengthAdjust="spacing" textLength="195" x="41" y="659.6198">aws_sagemaker_image</text><line style="stroke:#000D19;stroke-width:0.5;" x1="8" x2="243" y1="673.6291" y2="673.6291"/><text fill="#D9B8FF" font-family="sans-serif" font-size="14" font-weight="bold" lengthAdjust="spacing" textLength="143" x="18" y="695.6242">image_description</text><text fill="#D9B8FF" font-family="sans-serif" font-size="14" lengthAdjust="spacing" textLength="48" x="161" y="695.6242">: string</text><text fill="#D9B8FF" font-family="sans-serif" font-size="14" font-weight="bold" lengthAdjust="spacing" textLength="159" x="18" y="721.9211">image_display_name</text><text fill="#D9B8FF" font-family="sans-serif" font-size="14" lengthAdjust="spacing" textLength="48" x="177" y="721.9211">: string</text><text fill="#D9B8FF" font-family="sans-serif" font-size="14" font-weight="bold" lengthAdjust="spacing" textLength="166" x="18" y="748.2179">image_failure_reason</text><text fill="#D9B8FF" font-family="sans-serif" font-size="14" lengthAdjust="spacing" textLength="48" x="184" y="748.2179">: string</text><text fill="#D9B8FF" font-family="sans-serif" font-size="14" font-weight="bold" lengthAdjust="spacing" textLength="157" x="18" y="774.5148">image_image_status</text><text fill="#D9B8FF" font-family="sans-serif" font-size="14" lengthAdjust="spacing" textLength="48" x="175" y="774.5148">: string</text></g><!--class resource--><g id="elem_resource"><rect codeLine="31" fill="#3D176E" height="310.7578" id="resource" rx="2.5" ry="2.5" style="stroke:#000D19;stroke-width:0.5;" width="227" x="12" y="7"/><ellipse cx="80.75" cy="26.8945" fill="#ADD1B2" rx="11" ry="11" style="stroke:#181818;stroke-width:1.0;"/><path d="M83.7188,32.5352 Q83.1406,32.832 82.5,32.9727 Q81.8594,33.1289 81.1563,33.1289 Q78.6563,33.1289 77.3281,31.4883 Q76.0156,29.832 76.0156,26.707 Q76.0156,23.582 77.3281,21.9258 Q78.6563,20.2695 81.1563,20.2695 Q81.8594,20.2695 82.5,20.4258 Q83.1563,20.582 83.7188,20.8789 L83.7188,23.5977 Q83.0938,23.0195 82.5,22.7539 Q81.9063,22.4727 81.2813,22.4727 Q79.9375,22.4727 79.25,23.5508 Q78.5625,24.6133 78.5625,26.707 Q78.5625,28.8008 79.25,29.8789 Q79.9375,30.9414 81.2813,30.9414 Q81.9063,30.9414 82.5,30.6758 Q83.0938,30.3945 83.7188,29.8164 L83.7188,32.5352 Z " fill="#000000"/><text fill="#D9B8FF" font-family="Helvetica" font-size="17" lengthAdjust="spacing" textLength="71" x="106.25" y="32.7798">resource</text><line style="stroke:#000D19;stroke-width:0.5;" x1="13" x2="238" y1="46.7891" y2="46.7891"/><text fill="#D9B8FF" font-family="sans-serif" font-size="14" font-weight="bold" lengthAdjust="spacing" textLength="29" x="23" y="68.7842">age</text><text fill="#D9B8FF" font-family="sans-serif" font-size="14" lengthAdjust="spacing" textLength="66" x="52" y="68.7842">: duration</text><text fill="#D9B8FF" font-family="sans-serif" font-size="14" font-weight="bold" lengthAdjust="spacing" textLength="43" x="23" y="95.0811">atime</text><text fill="#D9B8FF" font-family="sans-serif" font-size="14" lengthAdjust="spacing" textLength="70" x="66" y="95.0811">: datetime</text><text fill="#D9B8FF" font-family="sans-serif" font-size="14" font-weight="bold" lengthAdjust="spacing" textLength="43" x="23" y="121.3779">ctime</text><text fill="#D9B8FF" font-family="sans-serif" font-size="14" lengthAdjust="spacing" textLength="70" x="66" y="121.3779">: datetime</text><text fill="#D9B8FF" font-family="sans-serif" font-size="14" font-weight="bold" lengthAdjust="spacing" textLength="14" x="23" y="147.6748">id</text><text fill="#D9B8FF" font-family="sans-serif" font-size="14" lengthAdjust="spacing" textLength="48" x="37" y="147.6748">: string</text><text fill="#D9B8FF" font-family="sans-serif" font-size="14" font-weight="bold" lengthAdjust="spacing" textLength="33" x="23" y="173.9717">kind</text><text fill="#D9B8FF" font-family="sans-serif" font-size="14" lengthAdjust="spacing" textLength="48" x="56" y="173.9717">: string</text><text fill="#D9B8FF" font-family="sans-serif" font-size="14" font-weight="bold" lengthAdjust="spacing" textLength="90" x="23" y="200.2686">last_access</text><text fill="#D9B8FF" font-family="sans-serif" font-size="14" lengthAdjust="spacing" textLength="66" x="113" y="200.2686">: duration</text><text fill="#D9B8FF" font-family="sans-serif" font-size="14" font-weight="bold" lengthAdjust="spacing" textLength="90" x="23" y="226.5654">last_update</text><text fill="#D9B8FF" font-family="sans-serif" font-size="14" lengthAdjust="spacing" textLength="66" x="113" y="226.5654">: duration</text><text fill="#D9B8FF" font-family="sans-serif" font-size="14" font-weight="bold" lengthAdjust="spacing" textLength="48" x="23" y="252.8623">mtime</text><text fill="#D9B8FF" font-family="sans-serif" font-size="14" lengthAdjust="spacing" textLength="70" x="71" y="252.8623">: datetime</text><text fill="#D9B8FF" font-family="sans-serif" font-size="14" font-weight="bold" lengthAdjust="spacing" textLength="43" x="23" y="279.1592">name</text><text fill="#D9B8FF" font-family="sans-serif" font-size="14" lengthAdjust="spacing" textLength="48" x="66" y="279.1592">: string</text><text fill="#D9B8FF" font-family="sans-serif" font-size="14" font-weight="bold" lengthAdjust="spacing" textLength="34" x="23" y="305.4561">tags</text><text fill="#D9B8FF" font-family="sans-serif" font-size="14" lengthAdjust="spacing" textLength="171" x="57" y="305.4561">: dictionary[string, string]</text></g><!--reverse link resource to aws_resource--><g id="link_resource_aws_resource"><path codeLine="43" d="M125.5,338.97 C125.5,376.78 125.5,413 125.5,438.51 " fill="none" id="resource-backto-aws_resource" style="stroke:#FFAF37;stroke-width:2.0;"/><polygon fill="none" points="118.5,339.18,125.5,319.18,132.5,339.18,118.5,339.18" style="stroke:#FFAF37;stroke-width:2.0;"/></g><!--reverse link aws_resource to aws_sagemaker_image--><g id="link_aws_resource_aws_sagemaker_image"><path codeLine="44" d="M125.5,533.98 C125.5,563.94 125.5,601.02 125.5,633.35 " fill="none" id="aws_resource-backto-aws_sagemaker_image" style="stroke:#FFAF37;stroke-width:2.0;"/><polygon fill="none" points="118.5,534.13,125.5,514.13,132.5,534.13,118.5,534.13" style="stroke:#FFAF37;stroke-width:2.0;"/></g><!--SRC=[XPDDQ-Cm48Rl-HM2ti86aYtRD6KltS2oUocbtLifPYAD7H5RCZFZXlJZlwzijwdyqVPYnBoFvdrdXBVMeCAYb8CgiDWWyOHtrfL0KAXB8hzV-zoJEabJI4-NVV6tT_8bS0K5gZ-OFw1O3NtYtzRgdKDczJsIVe7UPUGhPzhsGk0uIEWaejOvC5-AaDrKWb4OizgSfscVx3SzEJMBvHaEC4y6wHMPp-TciUeZNrfzElUHkBMFg1Rnqgwyu23cmAAXFarP4r78mQ1l-eSPhy4OwpBr8whTj9d88NNgjrimVb_JAUGSsx0WePT3YUl1LBWwD-bo5Fxx4QphpIdOSqB8lYADwcaodGAvwVGYDA0GOl8IOGmP5h13IcmHZWtTd1A3hCcMOdryzwXQBdCu92xiPqHEmUOLOKW1F7g__RA0L3mIhPi-QonCHL2dgIjYMri3WlKvrFH8pPgETTXajn2y906jmz_LSsYKggnxzPHYn6Um1O6ixMXrVGteSDTgtrwP-p3gSSYVpxFPhFDgayuJlkkzv_eF]--></g></svg>

<svg xmlns="http://www.w3.org/2000/svg" width="251" height="793" preserveAspectRatio="none" style="width:251px;height:793px"><rect width="155" height="74.086" x="48" y="438.76" fill="#3D176E" rx="2.5" ry="2.5" style="stroke:#000d19;stroke-width:.5"/><circle cx="63" cy="458.654" r="11" fill="#ADD1B2" style="stroke:#181818;stroke-width:1"/><path d="M65.969 464.295q-.578.297-1.219.438-.64.156-1.344.156-2.5 0-3.828-1.64-1.312-1.657-1.312-4.782t1.312-4.781q1.328-1.656 3.828-1.656.703 0 1.344.156.656.156 1.219.453v2.719q-.625-.579-1.219-.844-.594-.281-1.219-.281-1.343 0-2.031 1.078-.688 1.062-.688 3.156 0 2.094.688 3.172.688 1.062 2.031 1.062.625 0 1.219-.265.594-.281 1.219-.86v2.72Z"/><text x="82" y="464.54" fill="#D9B8FF" font-family="Helvetica" font-size="17" textLength="113">aws_resource</text><path d="M49 478.549h153" style="stroke:#000d19;stroke-width:.5"/><text x="59" y="500.544" fill="#D9B8FF" font-family="sans-serif" font-size="14" font-weight="bold" textLength="26">arn</text><text x="85" y="500.544" fill="#D9B8FF" font-family="sans-serif" font-size="14" textLength="48">: string</text><rect width="237" height="152.977" x="7" y="633.84" fill="#3D176E" rx="2.5" ry="2.5" style="stroke:#000d19;stroke-width:.5"/><circle cx="22" cy="653.735" r="11" fill="#ADD1B2" style="stroke:#181818;stroke-width:1"/><path d="M24.969 659.375q-.578.297-1.219.438-.64.156-1.344.156-2.5 0-3.828-1.64-1.312-1.657-1.312-4.782t1.312-4.781q1.328-1.656 3.828-1.656.703 0 1.344.156.656.156 1.219.453v2.719q-.625-.578-1.219-.844-.594-.281-1.219-.281-1.343 0-2.031 1.078-.688 1.062-.688 3.156 0 2.094.688 3.172.688 1.062 2.031 1.062.625 0 1.219-.265.594-.281 1.219-.86v2.72Z"/><text x="41" y="659.62" fill="#D9B8FF" font-family="Helvetica" font-size="17" textLength="195">aws_sagemaker_image</text><path d="M8 673.629h235" style="stroke:#000d19;stroke-width:.5"/><text x="18" y="695.624" fill="#D9B8FF" font-family="sans-serif" font-size="14" font-weight="bold" textLength="143">image_description</text><text x="161" y="695.624" fill="#D9B8FF" font-family="sans-serif" font-size="14" textLength="48">: string</text><text x="18" y="721.921" fill="#D9B8FF" font-family="sans-serif" font-size="14" font-weight="bold" textLength="159">image_display_name</text><text x="177" y="721.921" fill="#D9B8FF" font-family="sans-serif" font-size="14" textLength="48">: string</text><text x="18" y="748.218" fill="#D9B8FF" font-family="sans-serif" font-size="14" font-weight="bold" textLength="166">image_failure_reason</text><text x="184" y="748.218" fill="#D9B8FF" font-family="sans-serif" font-size="14" textLength="48">: string</text><text x="18" y="774.515" fill="#D9B8FF" font-family="sans-serif" font-size="14" font-weight="bold" textLength="157">image_image_status</text><text x="175" y="774.515" fill="#D9B8FF" font-family="sans-serif" font-size="14" textLength="48">: string</text><rect width="227" height="310.758" x="12" y="7" fill="#3D176E" rx="2.5" ry="2.5" style="stroke:#000d19;stroke-width:.5"/><circle cx="80.75" cy="26.895" r="11" fill="#ADD1B2" style="stroke:#181818;stroke-width:1"/><path d="M83.719 32.535q-.578.297-1.219.438-.64.156-1.344.156-2.5 0-3.828-1.64-1.312-1.657-1.312-4.782t1.312-4.781q1.328-1.656 3.828-1.656.703 0 1.344.156.656.156 1.219.453v2.719q-.625-.578-1.219-.844-.594-.281-1.219-.281-1.344 0-2.031 1.078-.688 1.062-.688 3.156 0 2.094.688 3.172.688 1.062 2.031 1.062.625 0 1.219-.265.594-.281 1.219-.86v2.72Z"/><text x="106.25" y="32.78" fill="#D9B8FF" font-family="Helvetica" font-size="17" textLength="71">resource</text><path d="M13 46.789h225" style="stroke:#000d19;stroke-width:.5"/><text x="23" y="68.784" fill="#D9B8FF" font-family="sans-serif" font-size="14" font-weight="bold" textLength="29">age</text><text x="52" y="68.784" fill="#D9B8FF" font-family="sans-serif" font-size="14" textLength="66">: duration</text><text x="23" y="95.081" fill="#D9B8FF" font-family="sans-serif" font-size="14" font-weight="bold" textLength="43">atime</text><text x="66" y="95.081" fill="#D9B8FF" font-family="sans-serif" font-size="14" textLength="70">: datetime</text><text x="23" y="121.378" fill="#D9B8FF" font-family="sans-serif" font-size="14" font-weight="bold" textLength="43">ctime</text><text x="66" y="121.378" fill="#D9B8FF" font-family="sans-serif" font-size="14" textLength="70">: datetime</text><text x="23" y="147.675" fill="#D9B8FF" font-family="sans-serif" font-size="14" font-weight="bold" textLength="14">id</text><text x="37" y="147.675" fill="#D9B8FF" font-family="sans-serif" font-size="14" textLength="48">: string</text><text x="23" y="173.972" fill="#D9B8FF" font-family="sans-serif" font-size="14" font-weight="bold" textLength="33">kind</text><text x="56" y="173.972" fill="#D9B8FF" font-family="sans-serif" font-size="14" textLength="48">: string</text><text x="23" y="200.269" fill="#D9B8FF" font-family="sans-serif" font-size="14" font-weight="bold" textLength="90">last_access</text><text x="113" y="200.269" fill="#D9B8FF" font-family="sans-serif" font-size="14" textLength="66">: duration</text><text x="23" y="226.565" fill="#D9B8FF" font-family="sans-serif" font-size="14" font-weight="bold" textLength="90">last_update</text><text x="113" y="226.565" fill="#D9B8FF" font-family="sans-serif" font-size="14" textLength="66">: duration</text><text x="23" y="252.862" fill="#D9B8FF" font-family="sans-serif" font-size="14" font-weight="bold" textLength="48">mtime</text><text x="71" y="252.862" fill="#D9B8FF" font-family="sans-serif" font-size="14" textLength="70">: datetime</text><text x="23" y="279.159" fill="#D9B8FF" font-family="sans-serif" font-size="14" font-weight="bold" textLength="43">name</text><text x="66" y="279.159" fill="#D9B8FF" font-family="sans-serif" font-size="14" textLength="48">: string</text><text x="23" y="305.456" fill="#D9B8FF" font-family="sans-serif" font-size="14" font-weight="bold" textLength="34">tags</text><text x="57" y="305.456" fill="#D9B8FF" font-family="sans-serif" font-size="14" textLength="171">: dictionary[string, string]</text><path fill="none" d="M125.5 338.97v99.54m-7-99.33 7-20 7 20h-14zm7 194.8v99.37m-7-99.22 7-20 7 20h-14z" style="stroke:#ffaf37;stroke-width:2"/></svg>
